lib/svgs/table.svg

<?xml version="1.0" encoding="UTF-8" standalone="no"?>
<svg width="20px" height="20px" viewBox="0 0 20 20" version="1.1" xmlns="http://www.w3.org/2000/svg" xmlns:xlink="http://www.w3.org/1999/xlink">
    <defs></defs>
    <g id="Icons" stroke="none" stroke-width="1" fill="none" fill-rule="evenodd">
        <g id="Web" transform="translate(-433.000000, -1418.000000)" fill="#000000">
            <g id="editor/table" transform="translate(433.000000, 1418.000000)">
                <path d="M2,3.6 L2,16.3272727 C2,16.6586436 2.26862915,16.9272727 2.6,16.9272727 L16.6,16.9272727 C16.9313708,16.9272727 17.2,16.6586436 17.2,16.3272727 L17.2,3.6 C17.2,3.26862915 16.9313708,3 16.6,3 L2.6,3 C2.26862915,3 2,3.26862915 2,3.6 L2,3.6 M3.2,8.65454545 L6.45454545,8.65454545 L6.45454545,15.7416859 L3.2,15.7465967 M16.0026259,8.65454545 L16.0067855,15.7272727 L7.65454545,15.7398753 L7.65454545,8.65454545 M16.0019202,7.45454545 L3.2,7.45454545 L3.2,4.21716416 L16,4.18951625" id="Shape"></path>
            </g>
        </g>
    </g>
</svg>

<svg xmlns="http://www.w3.org/2000/svg" viewBox="0 0 20 20">
    <path fill="#000" fill-rule="evenodd" d="M2 3.6v12.727a.6.6 0 0 0 .6.6h14a.6.6 0 0 0 .6-.6V3.6a.6.6 0 0 0-.6-.6h-14a.6.6 0 0 0-.6.6m1.2 5.055h3.255v7.087l-3.255.005m12.803-7.092l.004 7.072-8.352.013V8.655m8.347-1.2H3.2V4.217L16 4.19"/>
</svg>
